X:1
T:Title
%%score 1 { 2 | 3 }
L:1/8
Q:1/4=82
M:6/8
K:G
V:1 treble nm="Grand Piano, Soprano"
V:2 bass nm="Choir Pad, A Sinner Like Me"
V:3 bass 
V:1
 [B,D]/[B,D]/[B,G][B,G] [B,G][DB]>[CA] | [B,G][CE][B,D]- [B,D]2- [B,D]/ z/ | %2
w: By~Charles~J.~Butler * * * * * *||
 [B,D]/[B,D]<[B,G][B,G]/ [B,G][DB]<[DB] | [Dd] [DA]2- [DA]3- | %4
w: ||
 [DA][DB]/[DB]/[Gd]- [Gd]/[DB]/[DA][DG] | [DA][=FB][Ec] [Ec]3- | %6
w: ||
 [Ec][Ec][Dd]- [Dd]/[DB]/[^CG][DA]/[DB]/- | [DB][DA][DG]- [DG]3- | [DG]3 z3 |] %9
w: |||
V:2
 G,/G,/D,D, D,G,>G, | G,G,G,- G,2- G,/ z/ | G,/G,<D,D,/ D,G,<G, | G, F,2- F,3- | %4
 F,G,/A,/B,- B,/G,/CB, | A,G,G, G,3- | G,G,G,- G,/G,/G,F,/G,/- | G,CB,- B,3- | B,3 z3 |] %9
V:3
 G,,/G,,/G,,G,, G,,G,,>G,, | G,,C,G,,- G,,2- G,,/ z/ | G,,/G,,<G,,G,,/ G,,G,,<G,, | B,, D,2- D,3- | %4
 D,>G,G,- G,/ z/ G,F, | .F,2 C, C,3- | C,C,B,,- B,,/G,,/E,D,/D,/- | D,D,G,,- G,,3- | G,,3 z3 |] %9

